X:1
T:[ID 1-27b]
T:[ID 1-27b]
T:Bezeichnung standardisiert: Menuett Men\"uet
T:Urheber unbekannt Datum in der hier transkribierten schriftlichen Quelle: vermutlich vor 1767
C:Urheber unbekannt
C:Datum in der hier transkribierten schriftlichen Quelle: vermutlich vor 1767
L:1/8
M:3/4
K:D
V:1 treble 
V:1
 DE F2 E2 | FG A2 G2 | FA d2 c2 | d4 e2 | f2 a2 fd | e2 a2 ec | d2 c2 B2 | A6 :: Ac e2 c2 | %9
 Ad f2 d2 | Ae g2 f2 | e4 a2 | bagfed | cBcAdA | G2 F2 E2 | D6 :| %16

